docs/themes/v2/source/images/design/plus_cursor.svg

<svg fill="none" height="46" viewBox="0 0 46 46" width="46" xmlns="http://www.w3.org/2000/svg"><circle cx="22.646" cy="22.646" fill="#12110d" r="22.646"/><path clip-rule="evenodd" d="m23.7925 9.74633c0-.47495-.3851-.85998-.86-.85998-.475 0-.86.38503-.86.85998v12.32627h-12.3263c-.47495 0-.85997.3851-.85997.86 0 .475.38502.86.85997.86h12.3263v12.3263c0 .4749.385.86.86.86.4749 0 .86-.3851.86-.86v-12.3263h12.3263c.4749 0 .8599-.385.8599-.86 0-.4749-.385-.86-.8599-.86h-12.3263z" fill="#fdfdfc" fill-rule="evenodd"/></svg>

<svg width="46" height="46" viewBox="0 0 46 46" fill="none" xmlns="http://www.w3.org/2000/svg">
<circle cx="22.646" cy="22.646" r="22.646" fill="#12110D"/>
<path fill-rule="evenodd" clip-rule="evenodd" d="M23.7925 9.74633C23.7925 9.27138 23.4074 8.88635 22.9325 8.88635C22.4575 8.88635 22.0725 9.27138 22.0725 9.74633V22.0726H9.7462C9.27125 22.0726 8.88623 22.4577 8.88623 22.9326C8.88623 23.4076 9.27125 23.7926 9.7462 23.7926L22.0725 23.7926V36.1189C22.0725 36.5938 22.4575 36.9789 22.9325 36.9789C23.4074 36.9789 23.7925 36.5938 23.7925 36.1189V23.7926L36.1188 23.7926C36.5937 23.7926 36.9787 23.4076 36.9787 22.9326C36.9787 22.4577 36.5937 22.0726 36.1188 22.0726H23.7925V9.74633Z" fill="#FDFDFC"/>
</svg>
